usr/share/icons/biglinux-icons-material/24/actions/edit-node.svg

<svg xmlns="http://www.w3.org/2000/svg" viewBox="0 0 24 24">
  <defs id="defs3051">
    <style type="text/css" id="current-color-scheme">
      .ColorScheme-Text {
        color:#dedede;
      }
      </style>
  </defs>
 <path style="fill:currentColor;fill-opacity:1;stroke:none" 
     d="M 5.5 4 C 4.669 4 4 4.669 4 5.5 C 4 6.15424 4.418077 6.7021971 5 6.9082031 L 5 17 L 4 17 L 4 20 L 7 20 L 7 17 L 6 17 L 6 6.9082031 C 6.424456 6.7579421 6.7567461 6.422663 6.9082031 6 L 17 6 L 17 7 L 20 7 L 20 4 L 17 4 L 17 5 L 6.9082031 5 C 6.7021971 4.418077 6.15424 4 5.5 4 z M 5.5 5 C 5.777 5 6 5.223 6 5.5 C 6 5.777 5.777 6 5.5 6 C 5.223 6 5 5.777 5 5.5 C 5 5.223 5.223 5 5.5 5 z M 18 5 L 19 5 L 19 6 L 18 6 L 18 5 z M 7 7 L 7 14 L 9 11.5 L 12 11.5 L 7 7 z M 5 18 L 6 18 L 6 19 L 5 19 L 5 18 z "
     class="ColorScheme-Text"
     />
</svg>

<svg xmlns="http://www.w3.org/2000/svg" viewBox="0 0 24 24"><path d="M5.5 4A1.497 1.497 0 0 0 5 6.908V17H4v3h3v-3H6V6.908c.424-.15.757-.485.908-.908H17v1h3V4h-3v1H6.908c-.206-.582-.754-1-1.408-1zm0 1a.499.499 0 1 1 0 1 .499.499 0 1 1 0-1zM18 5h1v1h-1V5zM7 7v7l2-2.5h3L7 7zM5 18h1v1H5v-1z" style="fill:currentColor;fill-opacity:1;stroke:none;color:#dedede"/></svg>
